X:1
T:James Gibb editions
T:Come away, sweet love - Dowland
T:#
%%score [ 1 2 3 4 ]
L:1/8
Q:1/4=130
M:4/4
K:F
V:1 treble nm="Soprano" snm="S"
V:2 treble nm="Alto" snm="A"
V:3 treble-8 nm="Tenor" snm="T"
V:4 bass nm="Bass" snm="B"
V:1
"^Come away, sweet love""^John Dowland\n(1563-1626)" d2 c2 c4 | c2 B2 A4 | A2 B2 c2 d2- | %3
w: Come a- way,|come sweet love,|the gold- en morn\-|
w: Come a- way,|come sweet love,|the gold- en morn\-|
w: Come a- way,|come sweet love|do not in vain|
 d2 ^c2 d4 |[M:4/4] d2 c2 c4 | c2 B2 A4 | A2 B2 c2 d2- | d2 ^c2 d4 |[M:4/4] d3 e f2 d2 | %9
w: * ing breaks,|all the earth,|all the air,|of love and plea\-|* sure speaks.|Teach thine arms then|
w: * ing wastes|while the sun|from his sphere|his fie- ry ar\-|* rows casts|mak- ing all the|
w: * a- dorn|Beau- ty's grace|that should rise|like to the na\-|* ked morn.|Li- lies on the|
 c2 B2 A4 ||[M:3/4] G3 (A/B/ c2) | (A3 B/c/ d2) |[M:3/4] B2 c2 c2 | d4 d2 | c3 (BAG) | ^F4 G2 | %16
w: to em- brace,|and sweet * *|ro\- * * *|sy lips to|kiss, and|mix our * *|souls in|
w: sha- dows fly|play- ing, * *|stay\- * * *|ing in the|grove to|en- ter\- * *|tain the|
w: ri- er's side|and fair * *|Cyp\- * * *|rian flow'rs new|blown de-|sire no * *|beau- ties|
 B2 A4 | G6 ||[M:4/4] d3 e f2 d2 | c2 B2 A4 ||[M:3/4] G3 (A/B/ c2) | (A3 B/c/ d2) | %22
w: mu- tual|bliss.|Teach thine arms then|to em- brace,|and sweet * *|ro\- * * *|
w: stealth of|love.|Tith- er, sweet love,|let us hie,|fly- ing, * *|dy\- * * *|
w: but their|own|orn- a- ment is|nurse of pride|plea- sure, * *|mea\- * * *|
[M:3/4] B2 c2 c2 | d4 d2 | c3 (BAG) | ^F4 G2 | B2 A4 | G6 |] %28
w: sy lips to|kiss, and|mix our * *|souls in|mu- tual|bliss.|
w: ing in de-|sire wing'd|with sweet * *|hopes and|heav- n'ly|fire.|
w: sure love's de-|light, haste|then, sweet * *|love, our|wish- ed|flight.|
V:2
 G2 G2 A4 | A2 G2 ^F4- | !courtesy!^F2 G2 A2 A2 | A3 G ^F4 |[M:4/4] G2 G2 A4 | A2 G2 ^F4- | %6
w: Come a- way,|come sweet love,|* the gold- en|morn- ing breaks,|all the earth,|all the air,|
w: Come a- way,|come sweet love,|* the gold- en|morn- ing wastes|while the sun|from his sphere|
w: Come a- way,|come sweet love|* do not in|vain a- dorn|Beau- ty's grace|that should rise|
 F2 G2 A2 A2 | A3 G ^F4 |[M:4/4] Bc (d3 c) B2 | A2 G2 ^F4 ||[M:3/4] G4 G2 | F3 (G/A/) (B2- | %12
w: * of love and|plea- sure speaks.|Teach thine arms * then|to em- brace,|and sweet|ro- sy * lips|
w: * his fie- ry|ar- rows casts|mak- ing all * the|sha- dows fly|play- ing,|stay- ing * in|
w: * like to the|na- ked morn.|Li- lies on * the|ri- er's side|and fair|Cyp- rian * flow'rs|
[M:3/4] BA/G/) (A B2 A) | B4 F2 | F4 D2 | D4 D2 | G4 ^F2 | G6 ||[M:4/4] Bc (d3 c) B2 | A2 G2 ^F4 || %20
w: * * * to * *|kiss, and|mix our|souls in|mu- tual|bliss.|Teach thine arms * then|to em- brace,|
w: * * * the * *|grove to|en- ter-|tain the|stealth of|love.|Tith- er, sweet * love,|let us hie,|
w: * * * new * *|blown de-|sire no|beau- ties|but their|own|orn- a- ment * is|nurse of pride|
[M:3/4] G4 G2 | F3 (G/A/) (B2- |[M:3/4] BA/G/) (A B2 A) | B4 F2 | F4 D2 | D4 D2 | G4 ^F2 | G6 |] %28
w: and sweet|ro- sy * lips|* * * to * *|kiss, and|mix our|souls in|mu- tual|bliss.|
w: fly- ing,|dy- ing * in|* * * de\- * *|sire wing'd|with sweet|hopes and|heav- n'ly|fire.|
w: plea- sure,|mea- sure * love's|* * * de\- * *|light, haste|then, sweet|love, our|wish- ed|flight.|
V:3
 =B2 c2 c4 | f2 d2 d4 | d4 f2 f2 | e3 e d4 |[M:4/4][K:treble-8] =B2 c2 c4 | f2 d2 d4 | d4 f2 f2 | %7
w: Come a- way,|come sweet love,|the gold- en|morn- ing breaks,|all the earth,|all the air,|of love and|
w: Come a- way,|come sweet love,|the gold- en|morn- ing wastes|while the sun|from his sphere|his fie- ry|
w: Come a- way,|come sweet love|do not in|vain a- dorn|Beau- ty's grace|that should rise|like to the|
 e3 e d4 |[M:4/4][K:treble-8] f2 f2 B2 f2 | f2 d2 d4 ||[M:3/4] (B3 c/d/) _e2 | c2 f4 | %12
w: plea- sure speaks.|Teach thine arms then|to em- brace,|and * * sweet|ro- sy|
w: ar- rows casts|mak- ing all the|sha- dows fly|play\- * * ing,|stay- ing|
w: na- ked morn.|Li- lies on the|ri- ver's side|and * * fair|Cyp- rian|
[M:3/4][K:treble-8] d2 f4 | f4 B2 | ((A3 d)) (cB) | A4 (Bc | d2) d3 c | =B6 || %18
w: lips to|kiss, and|mix * our *|souls in *|* mu- tual|bliss.|
w: in the|grove to|en\- * ter\- *|tain the *|* stealth of|love.|
w: flow'rs new|blown de-|sire * no *|beau- ties *|* but their|own|
[M:4/4][K:treble-8] f2 f2 B2 f2 | f2 d2 d4 ||[M:3/4] (B3 c/d/) _e2 | c2 f4 | %22
w: Teach thine arms then|to em- brace,|and * * sweet|ro- sy|
w: Tith- er, sweet love,|let us hie,|fly\- * * ing,|dy- ing|
w: orn- a- ment is|nurse of pride|plea\- * * sure,|mea- sure|
[M:3/4][K:treble-8] d2 f4 | f4 B2 | (A3 d) (cB) | A4 (Bc | d2) d3 c | =B6 |] %28
w: lips to|kiss, and|mix * our *|souls in *|* mu- tual|bliss.|
w: in de-|sire wing'd|with * sweet *|hopes and *|* heav- n'ly|fire.|
w: love's de-|light, haste|then, * sweet *|love, our *|* wish- ed|flight.|
V:4
 G,2 E,2 F,4 | F,2 G,2 D,4 | D,2 (G,2 F,2) (E,D,) | A,2 A,,2 D,4 |[M:4/4] G,2 E,2 F,4 | %5
w: Come a- way,|come sweet love,|the gol\- * den *|morn- ing breaks,|all the earth,|
w: Come a- way,|come sweet love,|the gol\- * den *|morn- ing wastes|while the sun|
w: Come a- way,|come sweet love|do not * in *|vain a- dorn|Beau- ty's grace|
 F,2 G,2 D,4 | D,2 (G,2 F,2) (E,D,) | A,2 A,,2 D,4 |[M:4/4] B,,3 C, D,3 E, | F,2 G,2 D,4 || %10
w: all the air,|of love * and *|plea- sure speaks.|Teach thine arms then|to em- brace,|
w: from his sphere|his fie\- * ry *|ar- rows casts|mak- ing all the|sha- dows fly|
w: that should rise|like to * the *|na- ked morn.|Li- ies on the|ri- er's side|
[M:3/4] (_E,3 D,) C,2 | (F,3 E,) D,2 |[M:3/4] G,2 F,4 | B,,4 B,,2 | F,4 G,2 | (D,3 C, B,,A,,) | %16
w: and * sweet|ro\- * sy|lips to|kiss, and|mix our|souls * * *|
w: play\- * ing,|stay\- * ing|in the|grove to|en- ter-|tain * * *|
w: and * fair|Cyp\- * rian|flow'rs new|blown de-|sire no|beau\- * * *|
 G,,2 D,2 D,2 | G,,6 ||[M:4/4] B,,3 C, D,3 E, | F,2 G,2 D,4 ||[M:3/4] (_E,3 D,) C,2 | %21
w: in mu- tual|bliss.|Teach thine arms then|to em- brace,|and * sweet|
w: the stealth of|Love.|Tith- er, sweet love,|let us hie,|fly\- * ing,|
w: ties but their|own|orn- a- ment is|nurse of pride|plea\- * sure,|
 (F,3 E,) D,2 |[M:3/4] G,2 F,4 | B,,4 B,,2 | F,4 G,2 | (D,3 C, B,,A,,) | G,,2 D,2 D,2 | G,,6 |] %28
w: ro\- * sy|lips to|kiss, and|mix our|souls * * *|in mu- tual|bliss.|
w: dy\- * ing|in de-|sire wing'd|with sweet|hopes * * *|and heav- n'ly|fire.|
w: mea\- * sure|love's de-|light, haste|then, sweet|love, * * *|our wish- ed|flight.|

